svgs/sharp-light/brackets-curly.svg

<svg xmlns="http://www.w3.org/2000/svg" viewBox="0 0 576 512"><!--! Font Awesome Pro 6.6.0 by @fontawesome - https://fontawesome.com License - https://fontawesome.com/license (Commercial License) Copyright 2024 Fonticons, Inc. --><path d="M64 32l16 0 128 0 16 0 0 32-16 0L96 64l0 128 0 6.6-4.7 4.7L38.6 256l52.7 52.7 4.7 4.7 0 6.6 0 128 112 0 16 0 0 32-16 0L80 480l-16 0 0-16 0-137.4L4.7 267.3 0 262.6l0-13.3 4.7-4.7L64 185.4 64 48l0-16zm448 0l0 16 0 137.4 59.3 59.3 4.7 4.7 0 13.3-4.7 4.7L512 326.6 512 464l0 16-16 0-128 0-16 0 0-32 16 0 112 0 0-128 0-6.6 4.7-4.7L537.4 256l-52.7-52.7-4.7-4.7 0-6.6 0-128L368 64l-16 0 0-32 16 0 128 0 16 0z"/></svg>

<svg xmlns="http://www.w3.org/2000/svg" viewBox="0 0 576 512"><!--! Font Awesome Pro 6.4.0 by @fontawesome - https://fontawesome.com License - https://fontawesome.com/license (Commercial License) Copyright 2023 Fonticons, Inc. --><path d="M64 32H80 208h16V64H208 96V192v6.6l-4.7 4.7L38.6 256l52.7 52.7 4.7 4.7V320 448H208h16v32H208 80 64V464 326.6L4.7 267.3 0 262.6V249.4l4.7-4.7L64 185.4V48 32zm448 0V48 185.4l59.3 59.3 4.7 4.7v13.3l-4.7 4.7L512 326.6V464v16H496 368 352V448h16H480V320v-6.6l4.7-4.7L537.4 256l-52.7-52.7-4.7-4.7V192 64H368 352V32h16H496h16z"/></svg>
